img/icons/navigation/ui-panel-top.svg

<svg viewBox="0 0 16 16" xmlns="http://www.w3.org/2000/svg"><path d="m12.5 4c0.276 0 0.5-0.224 0.5-0.5 0-0.276-0.224-0.5-0.5-0.5h-9c-0.276 0-0.5 0.224-0.5 0.5 0 0.276 0.224 0.5 0.5 0.5h9z" fill="#000"/><path d="m13 15c1.66 0 3-1.34 3-3v-8c0-1.66-1.34-3-3-3l-10-1e-5c-1.66 0-3 1.34-3 3l-6.99e-7 8c-1.45e-7 1.66 1.34 3 3 3h10zm-10-1h10c1.1 0 2-0.895 2-2v-6l-14-1e-5v6c0 1.1 0.895 2 2 2zm12-10v1l-14-1e-5v-1c0-1.1 0.895-2 2-2h10c1.1 1e-5 2 0.895 2 2z" clip-rule="evenodd" fill="#000" fill-rule="evenodd"/></svg>

<svg xmlns="http://www.w3.org/2000/svg" viewBox="0 0 16 16" fill="none">
  <path fill="#000" d="M12.5 4a.5.5 0 0 0 0-1h-9a.5.5 0 0 0 0 1h9Z" />
  <path fill="#000" fill-rule="evenodd"
    d="M13 15a3 3 0 0 0 3-3V4a3 3 0 0 0-3-3H3a3 3 0 0 0-3 3v8a3 3 0 0 0 3 3h10ZM3 14h10a2 2 0 0 0 2-2V6H1v6a2 2 0 0 0 2 2ZM15 4v1H1V4a2 2 0 0 1 2-2h10a2 2 0 0 1 2 2Z"
    clip-rule="evenodd" />
</svg>
